Obsidian-SemiLight/actions/22s/align-vertical-baseline.svg

<svg viewBox="0 0 22 22" xmlns="http://www.w3.org/2000/svg"><path d="m6.0957031 6c.26954 1.7782.9670613 3.6481156 2.5507813 5.353516-.7202322.906431-1.6292966 1.787006-2.8046875 2.646484h-2.8417969v1h1.3261719c-.4984522.299036-1.026181.596455-1.6074219.890625l.5957031 1.109375c1.2442915-.629738 2.3105691-1.30167 3.2402344-2h12.4453125v-1h-11.2285156c2.8187686-2.540017 4.0509936-5.3680405 4.9472656-8h-1.357422c-.51195 1.5034-1.103148 2.9317937-1.986328 4.308594-1.26473-1.4163002-1.8567275-2.796394-2.0859375-4.308594zm10.0410159 0c-1.17273.025-2.072003.2175469-2.726563.4980469l.367188 1.2617187c.31364-.1021 1.499852-.4589844 2.195312-.4589844h.095703c.96819.0380001 1.03711.3686844 1.03711 1.1464844v.3066406l-.50586.078125c-2.34549.3188001-3.599609.5864313-3.599609 2.2695308 0 1.173001.913578 1.898438 2.236328 1.898438.91364 0 1.513333-.357197 2.126953-.841797l.191407.714844h1.445312v-4.7187501c0-1.4408-1.062849-2.1542969-2.699219-2.1542969zm.96875 3.75v1.568359c-.50453.3188-.886466.546875-1.541016.546875-.58637 0-.873047-.343625-.873047-.828125 0-.918.858173-1.0725902 1.908203-1.2128902z" fill="#4d4d4d"/></svg>

<svg xmlns="http://www.w3.org/2000/svg" viewBox="0 0 22 22">
  <defs id="defs3051">
    <style type="text/css" id="current-color-scheme">
      .ColorScheme-Text {
        color:#4d4d4d;
      }
      </style>
  </defs>
 <path 
    style="fill:currentColor;fill-opacity:1;stroke:none" 
    d="M 6.0957031 6 C 6.3652431 7.7782 7.0627644 9.6481156 8.6464844 11.353516 C 7.9262522 12.259947 7.0171878 13.140522 5.8417969 14 L 3 14 L 3 15 L 4.3261719 15 C 3.8277197 15.299036 3.2999909 15.596455 2.71875 15.890625 L 3.3144531 17 C 4.5587446 16.370262 5.6250222 15.69833 6.5546875 15 L 19 15 L 19 14 L 7.7714844 14 C 10.590253 11.459983 11.822478 8.6319595 12.71875 6 L 11.361328 6 C 10.849378 7.5034 10.25818 8.9317937 9.375 10.308594 C 8.11027 8.8922938 7.5182725 7.5122 7.2890625 6 L 6.0957031 6 z M 16.136719 6 C 14.963989 6.025 14.064716 6.2175469 13.410156 6.4980469 L 13.777344 7.7597656 C 14.090984 7.6576656 15.277196 7.3007812 15.972656 7.3007812 L 16.068359 7.3007812 C 17.036549 7.3387813 17.105469 7.6694656 17.105469 8.4472656 L 17.105469 8.7539062 L 16.599609 8.8320312 C 14.254119 9.1508313 13 9.4184625 13 11.101562 C 13 12.274563 13.913578 13 15.236328 13 C 16.149968 13 16.749661 12.642803 17.363281 12.158203 L 17.554688 12.873047 L 19 12.873047 L 19 8.1542969 C 19 6.7134969 17.937151 6 16.300781 6 L 16.136719 6 z M 17.105469 9.75 L 17.105469 11.318359 C 16.600939 11.637159 16.219003 11.865234 15.564453 11.865234 C 14.978083 11.865234 14.691406 11.521609 14.691406 11.037109 C 14.691406 10.119109 15.549579 9.9645188 16.599609 9.8242188 L 17.105469 9.75 z "
    class="ColorScheme-Text"
    />  
</svg>
